X:4408
T:Mozart's Favourite Waltz. CJF.220
O:england
M:3/4
L:1/8
Q:120
S: C.J.Fox MS, 1829/33, Beverley,E.Yorks.
R:Waltz
A:East Yorkshire
B:Kidson Coll.Mitchell Lib.M1805
N:At the "1" mark, the MS does this:- there is a d crotchet and from the
N:same note-head rises the first of a beamed pair of grace-notes d/^d/. -
N:PJH.
K:C
"f"(c'bc')|(e'c'gefd)|(ag)(ecec)|(ag).f(dfd)|g3.c'(bc')|\
e'(c'gefd)|(ag).ec(ec)|(ag).f(dBd)|c2z:||:
.G(ce)|(efd).G.B.d|(dec).G.c.e|BgGgBg|(ce)G.G.c.e|\
(efd).G(Bd)|dec.G.c.e|BgGgBg|"Fine"c2z:||:
z2z|.e2(e3f)|(ag)g3e|(gf)f3d|(de)c3"1"d|e2e3f|\
(ag)g3e|(gf)f3d|dcc2z2:||
"Dolce."(d'b)b2c'b|(ag)g4|(c'b)(bd')c'a|(ag)g3f|e2e3f|\
(ag)g3e|(gf)f3d|(dc).c .G(AG)|
"Cres:".c.G.e.G(AG)|.B.G.d.G(AG)|.d.G.f.G(AG)|.c.G.e.G(AG)|\
"Dolce.".c.G.e.G(AG)|.B.G.d.G(AG)|.d.G.f.G(AG)|c3.g(ag)|
"Cres:"(^fg)(=fg)(eg)|(dg)(cg)(ag)|(^fg)(=fg)(eg)|(dgc).G(AG)|\
.c.G.e.G(AG)|.B.G.d.G(AG)|.d.G.f.G(AG)|c2"DC.."z2||


